build/images/clients/colorado-wic.svg

<?xml version="1.0" encoding="UTF-8"?>
<svg width="141px" height="114px" viewBox="0 0 141 114" version="1.1" xmlns="http://www.w3.org/2000/svg" xmlns:xlink="http://www.w3.org/1999/xlink">
    <title>colorado-wic</title>
    <g id="Page-1" stroke="none" stroke-width="1" fill="none" fill-rule="evenodd">
        <g id="colorado-wic" fill-rule="nonzero">
            <g id="Layer_1">
                <path d="M66.9950316,39.5308327 C66.9669178,38.3470669 67.1278115,37.1639096 67.4764943,35.9903214 L67.4764943,35.9903214 C71.5377993,37.1317777 74.0129041,39.117349 74.0418948,41.2571977 C74.0418948,42.086243 73.4510088,43.1103579 71.590812,43.3151808 C69.0740751,43.5980316 67.4764943,42.3398334 67.2138783,40.6524823 C67.2138783,40.4964267 67.2138783,39.7259022 67.2138783,39.5210792 M73.4057795,54.9218156 C70.4265808,54.9218156 68.0114631,57.327911 68.0114631,60.2959802 L68.0114631,90.2684077 C68.1832736,93.1056298 70.5429504,95.318939 73.3959894,95.318939 C76.2490284,95.318939 78.6087053,93.1056298 78.7805158,90.2684077 L78.7805158,60.3154871 C78.7805158,57.347418 76.3653981,54.9413226 73.3861994,54.9413226 M23.4569549,90.2684077 L23.4569549,96.9592913 C23.4569549,100.420243 20.6407786,103.225899 17.1668491,103.225899 C13.6929196,103.225899 10.8767433,100.420243 10.8767433,96.9592913 L10.8767433,54.7072392 C10.9974747,52.7135207 9.99841008,50.8175606 8.2826567,49.7843497 C6.56690331,48.7511388 4.41753048,48.7511388 2.70177709,49.7843497 C0.986023711,50.8175606 -0.0130408811,52.7135207 0.107690527,54.7072392 L0.107690527,96.9592913 C0.114237614,104.736971 5.41215604,111.520767 12.9778299,113.439046 C20.5435037,115.357325 28.4519497,111.922007 32.1896776,105.093689 C26.8097195,102.078751 23.4792529,96.4082838 23.476535,90.2586542 M140.575298,22.0818666 C134.329389,8.50917379 120.660238,-0.139170726 105.673777,2.72887182e-14 C89.5223995,0.0505773401 75.1147305,10.1259101 69.5778707,25.2419923 C73.387714,26.6096244 76.591068,29.2725675 78.623875,32.7619213 C81.2801226,19.97126 92.5633545,10.7806699 105.673777,10.7288221 C116.418896,10.6562098 126.208436,16.8668081 130.68735,26.5977253 C131.500553,28.3400157 133.18497,29.5177406 135.106097,29.6872623 C137.027224,29.856784 138.893197,28.9923482 140.001121,27.4195794 C141.109045,25.8468107 141.290601,23.80465 140.477398,22.0623596" id="Shape" fill="#FFFFFF"></path>
                <path d="M122.835732,74.7018622 C119.670971,82.4180826 111.472487,86.8291705 103.260302,85.2341684 C95.0481175,83.6391664 89.1131461,76.4830246 89.0894344,68.1475272 L89.0894344,39.2674889 C89.0855676,30.9114374 95.0253108,23.7242162 103.25744,22.1238897 C111.489569,20.5235633 119.705711,24.9588795 122.855312,32.7034004 C123.898728,35.4351145 122.559477,38.4967657 119.840706,39.5950678 C117.121935,40.6933699 114.020582,39.4255893 112.859673,36.7413389 C111.668433,33.7318438 108.491518,31.9975077 105.304388,32.6167719 C102.117259,33.236036 99.8273169,36.032591 99.858489,39.2674889 L99.858489,68.1377738 C99.8675828,71.3421733 102.149532,74.0930365 105.306666,74.7054876 C108.4638,75.3179386 111.615048,73.6210589 112.830303,70.6541702 C113.991212,67.9699198 117.092565,66.7021392 119.811336,67.8004413 C122.530107,68.8987434 123.869358,71.9603946 122.825941,74.6921087 M63.8213225,24.2469115 C54.3907652,24.2578877 46.748479,31.8716242 46.7376889,41.2669512 L46.7376889,90.2586542 C46.7376889,93.7196059 43.9215126,96.5252617 40.4475831,96.5252617 C36.9736536,96.5252617 34.1574773,93.7196059 34.1574773,90.2586542 L34.1574773,48.0163556 C33.9856667,45.1791334 31.6259899,42.9658242 28.7729509,42.9658242 C25.9199119,42.9658242 23.5602351,45.1791334 23.3884245,48.0163556 L23.3884245,90.2586542 C23.3884245,99.6584375 31.0370279,107.278467 40.4720582,107.278467 C49.9070885,107.278467 57.5556918,99.6584375 57.5556918,90.2586542 L57.5556918,41.2669512 C57.5519415,38.9773284 58.8047679,36.8688158 60.8214207,35.7707143 C62.8380735,34.6726127 65.2959188,34.760602 67.2282592,36.0000749 L67.2282592,36.0000749 C69.0450732,37.1415311 70.1523047,39.1271025 70.1652736,41.2669512 C70.1652736,42.0959965 69.9009423,43.1201113 69.0687882,43.3249343 L69.0687882,43.3249343 C67.9429327,43.6077851 67.2282592,42.3495868 67.1107786,40.6622357 C67.1107786,40.5939614 67.1107786,40.4086454 67.1107786,40.2135759 C67.1107786,43.997924 69.2547991,48.3869876 74.2183534,48.3869876 C76.091091,48.4123853 77.889643,47.6586697 79.1810738,46.3072702 C80.4725046,44.9558708 81.1398376,43.129196 81.0224368,41.2669512 C81.0146901,36.7350785 79.1961852,32.3927544 75.9686435,29.1992313 C72.7411019,26.0057082 68.370135,24.2237979 63.8213225,24.2469115" id="Shape" fill="#ADADAD"></path>
            </g>
        </g>
    </g>
</svg>

<svg width="141" height="114" xmlns="http://www.w3.org/2000/svg"><g fill-rule="nonzero" fill="none"><path d="M66.995 39.53a11.426 11.426 0 01.481-3.54c4.062 1.142 6.537 3.127 6.566 5.267 0 .83-.591 1.853-2.451 2.058-2.517.283-4.115-.975-4.377-2.663v-1.13m6.192 15.4c-2.98 0-5.395 2.406-5.395 5.374v29.972c.172 2.838 2.532 5.05 5.385 5.05 2.853 0 5.213-2.212 5.385-5.05V60.315c0-2.968-2.416-5.374-5.395-5.374M23.457 90.268v6.691c0 3.461-2.816 6.267-6.29 6.267s-6.29-2.806-6.29-6.267V54.707a5.369 5.369 0 00-2.594-4.923 5.412 5.412 0 00-5.581 0 5.369 5.369 0 00-2.594 4.923V96.96c.006 7.778 5.304 14.562 12.87 16.48 7.566 1.918 15.474-1.517 19.212-8.345a17.019 17.019 0 01-8.713-14.835m117.098-68.177C134.33 8.509 120.66-.14 105.674 0c-16.152.05-30.56 10.126-36.096 25.242a17.186 17.186 0 019.046 7.52c2.656-12.79 13.94-21.981 27.05-22.033 10.745-.073 20.534 6.138 25.013 15.869a5.398 5.398 0 004.42 3.09A5.406 5.406 0 00140 27.42a5.361 5.361 0 00.476-5.358" fill="#FFF"/><path d="M122.836 74.702c-3.165 7.716-11.364 12.127-19.576 10.532-8.212-1.595-14.147-8.751-14.17-17.086v-28.88c-.004-8.357 5.935-15.544 14.167-17.144 8.233-1.6 16.449 2.835 19.598 10.58a5.368 5.368 0 01-3.014 6.891c-2.72 1.098-5.82-.17-6.981-2.854a6.74 6.74 0 00-7.556-4.124 6.717 6.717 0 00-5.446 6.65v28.87a6.717 6.717 0 005.449 6.568 6.74 6.74 0 007.523-4.05c1.161-2.685 4.263-3.953 6.981-2.855a5.368 5.368 0 013.015 6.892M63.82 24.247c-9.43.01-17.073 7.625-17.083 17.02v48.992c0 3.46-2.816 6.266-6.29 6.266s-6.29-2.805-6.29-6.266V48.016c-.172-2.837-2.532-5.05-5.385-5.05-2.853 0-5.213 2.213-5.385 5.05V90.26c0 9.4 7.649 17.02 17.084 17.02 9.435 0 17.084-7.62 17.084-17.02V41.267a6.248 6.248 0 013.265-5.496 6.296 6.296 0 016.407.23 6.266 6.266 0 012.937 5.266c0 .829-.264 1.853-1.096 2.058-1.126.283-1.84-.975-1.958-2.663v-.448c0 3.784 2.144 8.173 7.107 8.173a6.738 6.738 0 004.963-2.08 6.686 6.686 0 001.841-5.04 17.017 17.017 0 00-5.053-12.068 17.147 17.147 0 00-12.148-4.952" fill="#ADADAD"/></g></svg>
